X:12
T:La marquise empoisonnée
R:Chanson
O:France
B:Le livre des Chansons (Henri Davenson) n°12
Z:<anamnese@caramail.com> -- http://anamnese.fr.st
M:6/8
L:1/8
Q:1/4=90
K:F
d  A B |  A3 G F G |  A3 G A B | c2 d (c>Ac/B/) |!
 G2 z A A B |  A3 G F E | D3 F E F | G2 A D>CF/E/ | D3-D z2 ||
W:Quand le roi entra dans la cour pour saluer ces dames,
W:La première qu'il salua elle a ravi son âme.
W:
W:Le roi demanda au marquis : "A qui est cette dame ?"
W:Le marquis lui a répondu : "Sire roi, c'est ma femme.
W:
W:- Marquis, t'es plus heureux qu'un roi d'avoir femme si belle.
W:Si tu voulais, l'honneur j'aurais de coucher avec elle.
W:
W:- Sire, vous avez tout pouvoir, tout pouvoir et puissance ;
W:Mais si vous n'étiez pas roi, j'en aurais ma vengeance ! /.../

